src/images/heart-empty.svg

<svg class="empty" width="20px" height="18px" viewBox="0 0 20 18" version="1.1" xmlns="http://www.w3.org/2000/svg" xmlns:xlink="http://www.w3.org/1999/xlink">
    <!-- Generator: Sketch 44 (41411) - http://www.bohemiancoding.com/sketch -->
    <desc>Created with Sketch.</desc>
    <defs>
        <linearGradient x1="50%" y1="28.0691964%" x2="50%" y2="91.970575%" id="linearGradient-1">
            <stop stop-color="#3A5AC6" offset="0%"></stop>
            <stop stop-color="#24C6CF" offset="100%"></stop>
        </linearGradient>
    </defs>
    <g id="Page-1" stroke="none" stroke-width="1" fill="none" fill-rule="evenodd">
        <g id="MAXICONS-2.0" transform="translate(-365.000000, -386.000000)" fill-rule="nonzero" fill="url(#linearGradient-1)">
            <g id="Like" transform="translate(365.000000, 316.000000)">
                <g id="Outline" transform="translate(0.000000, 70.000000)">
                    <path d="M16.8811805,8.41927733 L16.8811805,8.41927733 C18.3729398,6.95071082 18.3729398,4.58286985 16.8811805,3.11430335 C15.3719787,1.62856555 12.9122926,1.62856555 11.4030908,3.11430335 L10,4.49557982 L8.59690924,3.11430335 C7.08770741,1.62856555 4.62802134,1.62856555 3.11881952,3.11430335 C1.62706016,4.58286985 1.62706016,6.95071082 3.11881952,8.41927733 L11.4030908,16.5747504 L8.59690924,16.5747504 L16.8811805,8.41927733 Z M18.2842712,9.84452689 L18.2842712,9.84452689 L10,18 L1.71572875,9.84452689 C-0.571909584,7.59245518 -0.571909584,3.9411255 1.71572875,1.68905378 C4.00336709,-0.563017928 7.71236166,-0.563017928 10,1.68905378 C12.2876383,-0.563017928 15.9966329,-0.563017928 18.2842712,1.68905378 C20.5719096,3.9411255 20.5719096,7.59245518 18.2842712,9.84452689 L18.2842712,9.84452689 Z" id="Shape"></path>
                </g>
            </g>
        </g>
    </g>
</svg>

<svg class="empty" width="20" height="18" xmlns="http://www.w3.org/2000/svg">
  <defs>
    <linearGradient x1="50%" y1="28.069%" x2="50%" y2="91.971%" id="a">
      <stop stop-color="#3A5AC6" offset="0%"/>
      <stop stop-color="#24C6CF" offset="100%"/>
    </linearGradient>
  </defs>
  <path d="M16.881 8.42a3.704 3.704 0 0 0 0-5.306 3.924 3.924 0 0 0-5.478 0L10 4.496 8.597 3.114a3.924 3.924 0 0 0-5.478 0 3.704 3.704 0 0 0 0 5.305l8.284 8.156H8.597l8.284-8.156zm1.403 1.425L10 18 1.716 9.845a5.704 5.704 0 0 1 0-8.156C4.003-.563 7.712-.563 10 1.69c2.288-2.252 5.997-2.252 8.284 0a5.704 5.704 0 0 1 0 8.156z" fill="url(#a)"/>
</svg>
